!!!OTL: Waise und Stiefmutter Es war ein Waislein klein,
!!!ARE: Europa, Osteuropa, UdSSR, Ukraine
!!!YOR: 5, S. 299
!!    1943 aufgezeichnet im Lager Marienbad
!!!SCT: Q0116E
!!!YEM: Copyright 1995, estate of Helmut Schaffrath.
**kern
*ICvox
*Ivox
*M6/8
*k[f#]
*G:
{8d
=1
4g
8B
4c
8B
=2
4.A
4r}
{8d
=3
4f#
8e
4d
8c
=4
4.B
4r}
{8d
=5
4g
8a
8b
8a
8g
=6
4.e
4r}
{8e
=7
4d
8f#
4a
8b
=8
4.g
4r}
==
!!!AGN: Ballade, Waise, boese Stiefmutter, Klage am Grab, Geist
!!!ONB: ESAC (Essen Associative Code) Database: BALLADE
!!!AMT: compound duple
!!!AIN: vox
!!!EED: Helmut Schaffrath
!!!EEV: 1.0
*-
